X:753
T:the New-Rigged Ship (jig)
T:Miss Finlay's Delight
T:Piper's Fancy
R:Jig
O:Scotland
A:Shetland Islands
B:Kerr's Third p27
B:NE Fiddlers
S:Richard Robinson's web page/abc file
Z:Transcription:Richard Robinson(?), Chords:Mike Long
M:6/8
L:1/8
K:D
A|\
"D"d2d def|d2d def|"A"ecA ABA|"A"ecA "(G)"ABc|\
"D"d2d def|d2d def|"A"ecA ABc|"D"d3 d2:|
|:f|\
"D"a2f a2f|d2d dfa|"G"b2g b2g|"(A)"e2e efg|\
"D"a2f a2f|d2d def|"A"ecA ABc|"D"d3 d2:|
